symbols/web/stream/materialsymbolsoutlined/stream_wght700grad200_24px.svg

<svg xmlns="http://www.w3.org/2000/svg" height="24" width="24"><path d="M3.95 14.7q-1.125 0-1.925-.8t-.8-1.925q0-1.1.8-1.9.8-.8 1.925-.8 1.1 0 1.9.8.8.8.8 1.9 0 1.125-.8 1.925t-1.9.8Zm1.65 6-2.35-2.35L8.575 13l2.375 2.375Zm3.025-9.775L3.3 5.6l2.35-2.375L11 8.55Zm3.4 11.85q-1.125 0-1.925-.8t-.8-1.925q0-1.1.8-1.9.8-.8 1.925-.8 1.1 0 1.9.8.8.8.8 1.9 0 1.125-.8 1.925t-1.9.8Zm0-16.15q-1.125 0-1.925-.787-.8-.788-.8-1.913t.8-1.913q.8-.787 1.925-.787 1.1 0 1.9.787.8.788.8 1.913t-.8 1.913q-.8.787-1.9.787ZM15.4 11l-2.375-2.45L18.4 3.225 20.775 5.6Zm3 9.7-5.325-5.325L15.45 13l5.325 5.35Zm1.675-6q-1.125 0-1.912-.8-.788-.8-.788-1.925 0-1.1.788-1.9.787-.8 1.912-.8t1.913.8q.787.8.787 1.9 0 1.125-.787 1.925-.788.8-1.913.8Z"/></svg>

<svg xmlns="http://www.w3.org/2000/svg" height="24" width="24"><path d="M20.075 14.7Q18.95 14.7 18.163 13.9Q17.375 13.1 17.375 11.975Q17.375 10.875 18.163 10.075Q18.95 9.275 20.075 9.275Q21.2 9.275 21.988 10.075Q22.775 10.875 22.775 11.975Q22.775 13.1 21.988 13.9Q21.2 14.7 20.075 14.7ZM3.95 14.7Q2.825 14.7 2.025 13.9Q1.225 13.1 1.225 11.975Q1.225 10.875 2.025 10.075Q2.825 9.275 3.95 9.275Q5.05 9.275 5.85 10.075Q6.65 10.875 6.65 11.975Q6.65 13.1 5.85 13.9Q5.05 14.7 3.95 14.7ZM12.025 22.775Q10.9 22.775 10.1 21.975Q9.3 21.175 9.3 20.05Q9.3 18.95 10.1 18.15Q10.9 17.35 12.025 17.35Q13.125 17.35 13.925 18.15Q14.725 18.95 14.725 20.05Q14.725 21.175 13.925 21.975Q13.125 22.775 12.025 22.775ZM15.4 11 13.025 8.55 18.4 3.225 20.775 5.6ZM8.625 10.925 3.3 5.6 5.65 3.225 11 8.55ZM18.4 20.7 13.075 15.375 15.45 13 20.775 18.35ZM5.6 20.7 3.25 18.35 8.575 13 10.95 15.375ZM12.025 6.625Q10.9 6.625 10.1 5.838Q9.3 5.05 9.3 3.925Q9.3 2.8 10.1 2.012Q10.9 1.225 12.025 1.225Q13.125 1.225 13.925 2.012Q14.725 2.8 14.725 3.925Q14.725 5.05 13.925 5.838Q13.125 6.625 12.025 6.625Z"/></svg>
